images/icon/segment.svg

<svg height="140" viewBox="0 0 140 140" width="140" xmlns="http://www.w3.org/2000/svg"><path d="m23.894.552a1 1 0 0 0 -.894-.552h-22a1 1 0 0 0 -.8 1.6l8.8 11.823v8.577a2.015 2.015 0 0 0 2 2 1.993 1.993 0 0 0 1.2-.4l2-1.5a2.007 2.007 0 0 0 .8-1.6v-7.077l8.8-11.823a1 1 0 0 0 .094-1.048zm-18.477 1.648 3.939 5.25a.5.5 0 0 1 .1.3v1.25a.5.5 0 0 1 -.9.3l-4.936-6.5a.5.5 0 0 1 .4-.8h1a.5.5 0 0 1 .397.2z" transform="scale(5.83333333)"/></svg>

<svg viewBox="0 0 140 140" height="140" width="140" xmlns="http://www.w3.org/2000/svg"><g transform="matrix(5.833333333333333,0,0,5.833333333333333,0,0)"><path d="M23.894.552A1,1,0,0,0,23,0H1A1,1,0,0,0,.2,1.6L9,13.423V22a2.015,2.015,0,0,0,2,2,1.993,1.993,0,0,0,1.2-.4l2-1.5a2.007,2.007,0,0,0,.8-1.6V13.423L23.8,1.6A1,1,0,0,0,23.894.552ZM5.417,2.2l3.939,5.25a.5.5,0,0,1,.1.3V9a.5.5,0,0,1-.9.3L3.62,2.8a.5.5,0,0,1,.4-.8h1A.5.5,0,0,1,5.417,2.2Z" fill="#000" stroke="none" stroke-linecap="round" stroke-linejoin="round" stroke-width="0"></path></g></svg>
